X:4791
T:Old High Reel, The
O:england
R:reel
D:Davy Spillane: Shadow Hunter
D:Moher
D:Skylark: Skylark
M:C|
K:Dmix
~f3d ecAG|FD (3EFG AdcA|G2FG Adde|fded ^cdeg|
fd~d2 ecAG|FD (3EFG AdcA|G2FG Addc|A2GE FDD2:|
|:a2fa dafa|~a2fa defa|b2gb efgb|efgb efgb|
a2fa dafa|~a2fa defa|aggf feed|^cdAG FDD2:|
